X: 20952
M: 2/4
L: 1/16
K: F
V: 1 name="5"
(cB) |\
cd |\
e2(ef) g2a2 | b2b2 b2(c'b) | a2a2 a2(c'a) | g2c2 c2(cd) |\
e2ef g2a2 | b2b2 b2(c'b) | a2a2 =b2b2 | a2a2 "^D.C."z2 |]
K: Bb


